!!!OTL: LANG GENUG HAB ICH GESCHWIEGEN
!!!ARE: Europa, Mitteleuropa, Deutschland, Hessen, Odenwald
!!!SCT: E0697
!!!YEM: Copyright 1995, estate of Helmut Schaffrath.
**kern
*ICvox
*Ivox
*M3/4
*k[b-e-]
*B-:
{8f
16g
16a
=1
4.b-
8f
8d
8f
=2
8f
8d
4f}
{8b-
8dd
=3
4.cc
8a
8.cc
16g
=4
4g
4f}
{8f
8f
=5
4.dd
8cc
8b-
8g
=6
4f
8d}
{8f
8b-
8cc
=7
4dd
4dd
8cc
8cc
=8
4b-
4r}
==
!!!AGN: Liebes - Lied, Leid, Klage
!!!ONB: ESAC (Essen Associative Code) Database: ERK2
!!!AMT: simple triple
!!!AIN: vox
!!!EED: Helmut Schaffrath
!!!EEV: 1.0
*-
